; generated by Slic3r 1.3.0 on 2022-01-04 at 16:57:21

; external perimeters extrusion width = 0.44mm (4.25mm^3/s)
; perimeters extrusion width = 0.42mm (8.02mm^3/s)
; infill extrusion width = 0.42mm (10.69mm^3/s)
; solid infill extrusion width = 0.42mm (2.67mm^3/s)
; top infill extrusion width = 0.42mm (2.00mm^3/s)

M107
M190 S65 ; set bed temperature and wait for it to be reached
M104 S215 ; set temperature
G28 ; home all axes
G1 Z5 F5000 ; lift nozzle

; Filament gcode

M109 S215 ; set temperature and wait for it to be reached
G21 ; set units to millimeters
G90 ; use absolute coordinates
M82 ; use absolute distances for extrusion
G92 E0
G1 Z0.200 F7800.000



G1 E-2.00000 F2400.00000
G92 E0
G1 X80.564 Y80.564 F7800.000
G1 E2.00000 F2400.00000



G1 F1800
G1 X99.436 Y80.564 E2.52436
G1 X99.436 Y99.436 E3.04872
G1 X80.564 Y99.436 E3.57308
G1 X80.564 Y80.624 E4.09744
G1 X80.898 Y80.898 F7800.000

G1 Z0.400 F7800.000
G92 E2.00000


G1 F1800
G1 X99.102 Y80.898 E3.01158
G1 X99.102 Y99.102 E4.02316
G1 X80.898 Y99.102 E5.03473
G1 X80.898 Y80.958 E6.04298
G1 X80.220 Y80.220 F7800.000


G92 E10.23451


G1 F1800
G1 X99.780 Y80.220 E11.38653
G1 X99.780 Y99.780 E12.53856
G1 X80.220 Y99.780 E13.69058
G1 X80.220 Y80.280 E14.83907
G1 X80.606 Y80.324 F7800.000
G1 X81.363 Y81.102 F7800.000



G1 F1800
G1 X81.102 Y81.363 E14.85957
G1 X81.102 Y81.837 E14.88598
G1 X81.837 Y81.102 E14.94383
G1 X82.310 Y81.102 E14.97024
G1 X81.102 Y82.310 E15.06544
G1 X81.102 Y82.784 E15.09185
G1 X82.784 Y81.102 E15.22440
G1 X83.258 Y81.102 E15.25081
G1 X81.102 Y83.258 E15.42071
G1 X81.102 Y83.732 E15.44712
G1 X83.732 Y81.102 E15.65438
G1 X84.206 Y81.102 E15.68079
G1 X81.102 Y84.206 E15.92539
G1 X81.102 Y84.680 E15.95180
G1 X84.680 Y81.102 E16.23375
G1 X85.154 Y81.102 E16.26016
G1 X81.102 Y85.154 E16.57947
G1 X81.102 Y85.628 E16.60588
G1 X85.628 Y81.102 E16.96253
G1 X86.102 Y81.102 E16.98894
G1 X81.102 Y86.102 E17.38295
G1 X81.102 Y86.576 E17.40936
G1 X86.576 Y81.102 E17.84072
G1 X87.050 Y81.102 E17.86713
G1 X81.102 Y87.050 E18.33583
G1 X81.102 Y87.524 E18.36224
G1 X87.524 Y81.102 E18.86830
G1 X87.997 Y81.102 E18.89471
G1 X81.102 Y87.997 E19.43812
G1 X81.102 Y88.471 E19.46453
G1 X88.471 Y81.102 E20.04529
G1 X88.945 Y81.102 E20.07170
G1 X81.102 Y88.945 E20.68981
G1 X81.102 Y89.419 E20.71622
G1 X89.419 Y81.102 E21.37168
G1 X89.893 Y81.102 E21.39809
G1 X81.102 Y89.893 E22.09090
G1 X81.102 Y90.367 E22.11731
G1 X90.367 Y81.102 E22.84747
G1 X90.841 Y81.102 E22.87389
G1 X81.102 Y90.841 E23.64140
G1 X81.102 Y91.315 E23.66781
G1 X91.315 Y81.102 E24.47267
G1 X91.789 Y81.102 E24.49908
G1 X81.102 Y91.789 E25.34130
G1 X81.102 Y92.263 E25.36771
G1 X92.263 Y81.102 E26.24727
G1 X92.737 Y81.102 E26.27368
G1 X81.102 Y92.737 E27.19060
G1 X81.102 Y93.211 E27.21701
G1 X93.211 Y81.102 E28.17127
G1 X93.684 Y81.102 E28.19769
G1 X81.102 Y93.684 E29.18930
G1 X81.102 Y94.158 E29.21571
G1 X94.158 Y81.102 E30.24468
G1 X94.632 Y81.102 E30.27109
G1 X81.102 Y94.632 E31.33741
G1 X81.102 Y95.106 E31.36382
G1 X95.106 Y81.102 E32.46749
G1 X95.580 Y81.102 E32.49390
G1 X81.102 Y95.580 E33.63492
G1 X81.102 Y96.054 E33.66133
G1 X96.054 Y81.102 E34.83970
G1 X96.528 Y81.102 E34.86611
G1 X81.102 Y96.528 E36.08183
G1 X81.102 Y97.002 E36.10824
G1 X97.002 Y81.102 E37.36131
G1 X97.476 Y81.102 E37.38772
G1 X81.102 Y97.476 E38.67815
G1 X81.102 Y97.950 E38.70456
G1 X97.950 Y81.102 E40.03233
G1 X98.424 Y81.102 E40.05874
G1 X81.102 Y98.424 E41.42386
G1 X81.102 Y98.898 E41.45027
G1 X98.898 Y81.103 E42.85275
G1 X98.898 Y81.576 E42.87916
G1 X81.576 Y98.898 E44.24428
G1 X82.050 Y98.898 E44.27069
G1 X98.898 Y82.050 E45.59846
G1 X98.898 Y82.524 E45.62487
G1 X82.524 Y98.898 E46.91529
G1 X82.998 Y98.898 E46.94170
G1 X98.898 Y82.998 E48.19477
G1 X98.898 Y83.472 E48.22118
G1 X83.472 Y98.898 E49.43690
G1 X83.946 Y98.898 E49.46331
G1 X98.898 Y83.946 E50.64168
G1 X98.898 Y84.420 E50.66809
G1 X84.420 Y98.898 E51.80911
G1 X84.894 Y98.898 E51.83552
G1 X98.898 Y84.894 E52.93918
G1 X98.898 Y85.368 E52.96559
G1 X85.368 Y98.898 E54.03191
G1 X85.842 Y98.898 E54.05832
G1 X98.898 Y85.842 E55.08728
G1 X98.898 Y86.316 E55.11370
G1 X86.316 Y98.898 E56.10531
G1 X86.790 Y98.898 E56.13172
G1 X98.898 Y86.790 E57.08598
G1 X98.898 Y87.263 E57.11239
G1 X87.263 Y98.898 E58.02931
G1 X87.737 Y98.898 E58.05572
G1 X98.898 Y87.737 E58.93528
G1 X98.898 Y88.211 E58.96169
G1 X88.211 Y98.898 E59.80390
G1 X88.685 Y98.898 E59.83031
G1 X98.898 Y88.685 E60.63517
G1 X98.898 Y89.159 E60.66158
G1 X89.159 Y98.898 E61.42909
G1 X89.633 Y98.898 E61.45551
G1 X98.898 Y89.633 E62.18566
G1 X98.898 Y90.107 E62.21208
G1 X90.107 Y98.898 E62.90488
G1 X90.581 Y98.898 E62.93129
G1 X98.898 Y90.581 E63.58675
G1 X98.898 Y91.055 E63.61316
G1 X91.055 Y98.898 E64.23127
G1 X91.529 Y98.898 E64.25768
G1 X98.898 Y91.529 E64.83844
G1 X98.898 Y92.003 E64.86485
G1 X92.003 Y98.898 E65.40825
G1 X92.477 Y98.898 E65.43466
G1 X98.898 Y92.477 E65.94072
G1 X98.898 Y92.950 E65.96713
G1 X92.950 Y98.898 E66.43583
G1 X93.424 Y98.898 E66.46225
G1 X98.898 Y93.424 E66.89360
G1 X98.898 Y93.898 E66.92001
G1 X93.898 Y98.898 E67.31401
G1 X94.372 Y98.898 E67.34042
G1 X98.898 Y94.372 E67.69708
G1 X98.898 Y94.846 E67.72349
G1 X94.846 Y98.898 E68.04279
G1 X95.320 Y98.898 E68.06920
G1 X98.898 Y95.320 E68.35115
G1 X98.898 Y95.794 E68.37756
G1 X95.794 Y98.898 E68.62216
G1 X96.268 Y98.898 E68.64857
G1 X98.898 Y96.268 E68.85582
G1 X98.898 Y96.742 E68.88223
G1 X96.742 Y98.898 E69.05213
G1 X97.216 Y98.898 E69.07854
G1 X98.898 Y97.216 E69.21109
G1 X98.898 Y97.690 E69.23750
G1 X97.690 Y98.898 E69.33270
G1 X98.164 Y98.898 E69.35911
G1 X98.898 Y98.164 E69.41695
G1 X98.898 Y98.637 E69.44336
G1 X98.637 Y98.898 E69.46386
M104 S210 ; set temperature
M140 S60 ; set bed temperature



;CHANGE Z
G1 Z0.600 F7800.000
G1 X80.564 Y80.564 F7800.000



G92 E73.50684

G1 F3600
G1 X99.436 Y80.564 E74.55555
G1 X99.436 Y99.436 E75.60427
G1 X80.564 Y99.436 E76.65299
G1 X80.564 Y80.624 E77.69837
G1 X80.898 Y80.898 F7800.000

G92 E69.46386


;CHANGE Z
G1 Z0.800 F7800.000


G1 F3600
G1 X99.102 Y80.898 E70.47544
G1 X99.102 Y99.102 E71.48702
G1 X80.898 Y99.102 E72.49859
G1 X80.898 Y80.958 E73.50684
G1 X80.220 Y80.220 F7800.000


G92 E77.69837


G1 F1800
G1 X99.780 Y80.220 E78.85039
G1 X99.780 Y99.780 E80.00242
G1 X80.220 Y99.780 E81.15444
G1 X80.220 Y80.280 E82.30293
G1 X80.606 Y80.324 F7800.000
G1 X81.102 Y98.637 F7800.000



;G92 to correct extruder position



G1 F1200
G1 X81.363 Y98.898 E82.32343
G1 X81.837 Y98.898 E82.34984
G1 X81.102 Y98.163 E82.40769
G1 X81.102 Y97.690 E82.43410
G1 X82.310 Y98.898 E82.52930
G1 X82.784 Y98.898 E82.55571
G1 X81.102 Y97.216 E82.68826
G1 X81.102 Y96.742 E82.71467
G1 X83.258 Y98.898 E82.88457
G1 X83.732 Y98.898 E82.91098
G1 X81.102 Y96.268 E83.11824
G1 X81.102 Y95.794 E83.14465
G1 X84.206 Y98.898 E83.38925
G1 X84.680 Y98.898 E83.41566
G1 X81.102 Y95.320 E83.69761
G1 X81.102 Y94.846 E83.72402
G1 X85.154 Y98.898 E84.04333
G1 X85.628 Y98.898 E84.06974
G1 X81.102 Y94.372 E84.42639
G1 X81.102 Y93.898 E84.45280
G1 X86.102 Y98.898 E84.84681
G1 X86.576 Y98.898 E84.87322
G1 X81.102 Y93.424 E85.30458
G1 X81.102 Y92.950 E85.33099
G1 X87.050 Y98.898 E85.79969
G1 X87.524 Y98.898 E85.82610
G1 X81.102 Y92.476 E86.33216
G1 X81.102 Y92.003 E86.35857
G1 X87.997 Y98.898 E86.90198
G1 X88.471 Y98.898 E86.92839
G1 X81.102 Y91.529 E87.50915
G1 X81.102 Y91.055 E87.53556
G1 X88.945 Y98.898 E88.15367
G1 X89.419 Y98.898 E88.18008
G1 X81.102 Y90.581 E88.83554
G1 X81.102 Y90.107 E88.86195
G1 X89.893 Y98.898 E89.55476
G1 X90.367 Y98.898 E89.58117
G1 X81.102 Y89.633 E90.31134
G1 X81.102 Y89.159 E90.33775
G1 X90.841 Y98.898 E91.10526
G1 X91.315 Y98.898 E91.13167
G1 X81.102 Y88.685 E91.93653
G1 X81.102 Y88.211 E91.96294
G1 X91.789 Y98.898 E92.80516
G1 X92.263 Y98.898 E92.83157
G1 X81.102 Y87.737 E93.71113
G1 X81.102 Y87.263 E93.73754
G1 X92.737 Y98.898 E94.65446
G1 X93.211 Y98.898 E94.68087
G1 X81.102 Y86.789 E95.63514
G1 X81.102 Y86.316 E95.66155
G1 X93.684 Y98.898 E96.65316
G1 X94.158 Y98.898 E96.67958
G1 X81.102 Y85.842 E97.70854
G1 X81.102 Y85.368 E97.73495
G1 X94.632 Y98.898 E98.80127
G1 X95.106 Y98.898 E98.82768
G1 X81.102 Y84.894 E99.93135
G1 X81.102 Y84.420 E99.95776
G1 X95.580 Y98.898 E101.09878
G1 X96.054 Y98.898 E101.12519
G1 X81.102 Y83.946 E102.30356
G1 X81.102 Y83.472 E102.32997
G1 X96.528 Y98.898 E103.54569
G1 X97.002 Y98.898 E103.57211
G1 X81.102 Y82.998 E104.82518
G1 X81.102 Y82.524 E104.85159
G1 X97.476 Y98.898 E106.14201
G1 X97.950 Y98.898 E106.16842
G1 X81.102 Y82.050 E107.49619
G1 X81.102 Y81.576 E107.52260
G1 X98.424 Y98.898 E108.88773
G1 X98.898 Y98.898 E108.91414
G1 X81.103 Y81.102 E110.31661
G1 X81.576 Y81.102 E110.34302
G1 X98.898 Y98.424 E111.70814
G1 X98.898 Y97.950 E111.73455
G1 X82.050 Y81.102 E113.06232
G1 X82.524 Y81.102 E113.08874
G1 X98.898 Y97.476 E114.37915
G1 X98.898 Y97.002 E114.40557
G1 X82.998 Y81.102 E115.65863
G1 X83.472 Y81.102 E115.68505
G1 X98.898 Y96.528 E116.90076
G1 X98.898 Y96.054 E116.92718
G1 X83.946 Y81.102 E118.10554
G1 X84.420 Y81.102 E118.13195
G1 X98.898 Y95.580 E119.27297
G1 X98.898 Y95.106 E119.29938
G1 X84.894 Y81.102 E120.40305
G1 X85.368 Y81.102 E120.42946
G1 X98.898 Y94.632 E121.49577
G1 X98.898 Y94.158 E121.52219
G1 X85.842 Y81.102 E122.55115
G1 X86.316 Y81.102 E122.57756
G1 X98.898 Y93.684 E123.56918
G1 X98.898 Y93.210 E123.59559
G1 X86.790 Y81.102 E124.54985
G1 X87.263 Y81.102 E124.57626
G1 X98.898 Y92.737 E125.49317
G1 X98.898 Y92.263 E125.51958
G1 X87.737 Y81.102 E126.39915
G1 X88.211 Y81.102 E126.42556
G1 X98.898 Y91.789 E127.26777
G1 X98.898 Y91.315 E127.29418
G1 X88.685 Y81.102 E128.09904
G1 X89.159 Y81.102 E128.12545
G1 X98.898 Y90.841 E128.89296
G1 X98.898 Y90.367 E128.91937
G1 X89.633 Y81.102 E129.64953
G1 X90.107 Y81.102 E129.67594
G1 X98.898 Y89.893 E130.36875
G1 X98.898 Y89.419 E130.39516
G1 X90.581 Y81.102 E131.05062
G1 X91.055 Y81.102 E131.07703
G1 X98.898 Y88.945 E131.69514
G1 X98.898 Y88.471 E131.72155
G1 X91.529 Y81.102 E132.30230
G1 X92.003 Y81.102 E132.32872
G1 X98.898 Y87.997 E132.87212
G1 X98.898 Y87.523 E132.89853
G1 X92.477 Y81.102 E133.40459
G1 X92.950 Y81.102 E133.43100
G1 X98.898 Y87.050 E133.89970
G1 X98.898 Y86.576 E133.92611
G1 X93.424 Y81.102 E134.35747
G1 X93.898 Y81.102 E134.38388
G1 X98.898 Y86.102 E134.77788
G1 X98.898 Y85.628 E134.80429
G1 X94.372 Y81.102 E135.16094
G1 X94.846 Y81.102 E135.18735
G1 X98.898 Y85.154 E135.50666
G1 X98.898 Y84.680 E135.53307
G1 X95.320 Y81.102 E135.81502
G1 X95.794 Y81.102 E135.84143
G1 X98.898 Y84.206 E136.08603
G1 X98.898 Y83.732 E136.11244
G1 X96.268 Y81.102 E136.31969
G1 X96.742 Y81.102 E136.34610
G1 X98.898 Y83.258 E136.51600
G1 X98.898 Y82.784 E136.54241
G1 X97.216 Y81.102 E136.67496
G1 X97.690 Y81.102 E136.70137
G1 X98.898 Y82.310 E136.79656
G1 X98.898 Y81.836 E136.82298
G1 X98.164 Y81.102 E136.88082
G1 X98.637 Y81.102 E136.90723
G1 X98.898 Y81.363 E136.92773




;CHANGE Z
G1 Z1.000 F7800.000
G1 X80.564 Y80.564 F7800.000



G92 E73.50684

G1 F3600
G1 X99.436 Y80.564 E74.55555
G1 X99.436 Y99.436 E75.60427
G1 X80.564 Y99.436 E76.65299
G1 X80.564 Y80.624 E77.69837
G1 X80.898 Y80.898 F7800.000

G92 E69.46386


;CHANGE Z
G1 Z1.200 F7800.000


G1 F3600
G1 X99.102 Y80.898 E70.47544
G1 X99.102 Y99.102 E71.48702
G1 X80.898 Y99.102 E72.49859
G1 X80.898 Y80.958 E73.50684
G1 X80.220 Y80.220 F7800.000


G92 E77.69837


G1 F1800
G1 X99.780 Y80.220 E78.85039
G1 X99.780 Y99.780 E80.00242
G1 X80.220 Y99.780 E81.15444
G1 X80.220 Y80.280 E82.30293
G1 X80.606 Y80.324 F7800.000
G1 X81.102 Y98.637 F7800.000



;CHANGE G92 to correct extruder position

G92 E149.76680





G1 F1200
G1 X81.102 Y81.363 E149.78730
G1 X81.102 Y81.837 E149.81371
G1 X81.837 Y81.102 E149.87156
G1 X82.310 Y81.102 E149.89797
G1 X81.102 Y82.310 E149.99317
G1 X81.102 Y82.784 E150.01958
G1 X82.784 Y81.102 E150.15213
G1 X83.258 Y81.102 E150.17854
G1 X81.102 Y83.258 E150.34844
G1 X81.102 Y83.732 E150.37485
G1 X83.732 Y81.102 E150.58210
G1 X84.206 Y81.102 E150.60851
G1 X81.102 Y84.206 E150.85312
G1 X81.102 Y84.680 E150.87953
G1 X84.680 Y81.102 E151.16148
G1 X85.154 Y81.102 E151.18789
G1 X81.102 Y85.154 E151.50720
G1 X81.102 Y85.628 E151.53361
G1 X85.628 Y81.102 E151.89026
G1 X86.102 Y81.102 E151.91667
G1 X81.102 Y86.102 E152.31068
G1 X81.102 Y86.576 E152.33709
G1 X86.576 Y81.102 E152.76844
G1 X87.050 Y81.102 E152.79485
G1 X81.102 Y87.050 E153.26356
G1 X81.102 Y87.524 E153.28997
G1 X87.524 Y81.102 E153.79603
G1 X87.997 Y81.102 E153.82244
G1 X81.102 Y87.997 E154.36585
G1 X81.102 Y88.471 E154.39226
G1 X88.471 Y81.102 E154.97302
G1 X88.945 Y81.102 E154.99943
G1 X81.102 Y88.945 E155.61754
G1 X81.102 Y89.419 E155.64395
G1 X89.419 Y81.102 E156.29941
G1 X89.893 Y81.102 E156.32582
G1 X81.102 Y89.893 E157.01863
G1 X81.102 Y90.367 E157.04504
G1 X90.367 Y81.102 E157.77520
G1 X90.841 Y81.102 E157.80161
G1 X81.102 Y90.841 E158.56913
G1 X81.102 Y91.315 E158.59554
G1 X91.315 Y81.102 E159.40040
G1 X91.789 Y81.102 E159.42681
G1 X81.102 Y91.789 E160.26902
G1 X81.102 Y92.263 E160.29544
G1 X92.263 Y81.102 E161.17500
G1 X92.737 Y81.102 E161.20141
G1 X81.102 Y92.737 E162.11833
G1 X81.102 Y93.211 E162.14474
G1 X93.211 Y81.102 E163.09900
G1 X93.684 Y81.102 E163.12541
G1 X81.102 Y93.684 E164.11703
G1 X81.102 Y94.158 E164.14344
G1 X94.158 Y81.102 E165.17241
G1 X94.632 Y81.102 E165.19882
G1 X81.102 Y94.632 E166.26514
G1 X81.102 Y95.106 E166.29155
G1 X95.106 Y81.102 E167.39522
G1 X95.580 Y81.102 E167.42163
G1 X81.102 Y95.580 E168.56265
G1 X81.102 Y96.054 E168.58906
G1 X96.054 Y81.102 E169.76743
G1 X96.528 Y81.102 E169.79384
G1 X81.102 Y96.528 E171.00956
G1 X81.102 Y97.002 E171.03597
G1 X97.002 Y81.102 E172.28904
G1 X97.476 Y81.102 E172.31545
G1 X81.102 Y97.476 E173.60587
G1 X81.102 Y97.950 E173.63229
G1 X97.950 Y81.102 E174.96006
G1 X98.424 Y81.102 E174.98647
G1 X81.102 Y98.424 E176.35159
G1 X81.102 Y98.898 E176.37800
G1 X98.898 Y81.103 E177.78048
G1 X98.898 Y81.576 E177.80689
G1 X81.576 Y98.898 E179.17201
G1 X82.050 Y98.898 E179.19842
G1 X98.898 Y82.050 E180.52619
G1 X98.898 Y82.524 E180.55260
G1 X82.524 Y98.898 E181.84302
G1 X82.998 Y98.898 E181.86943
G1 X98.898 Y82.998 E183.12250
G1 X98.898 Y83.472 E183.14891
G1 X83.472 Y98.898 E184.36463
G1 X83.946 Y98.898 E184.39104
G1 X98.898 Y83.946 E185.56941
G1 X98.898 Y84.420 E185.59582
G1 X84.420 Y98.898 E186.73683
G1 X84.894 Y98.898 E186.76325
G1 X98.898 Y84.894 E187.86691
G1 X98.898 Y85.368 E187.89332
G1 X85.368 Y98.898 E188.95964
G1 X85.842 Y98.898 E188.98605
G1 X98.898 Y85.842 E190.01501
G1 X98.898 Y86.316 E190.04142
G1 X86.316 Y98.898 E191.03304
G1 X86.790 Y98.898 E191.05945
G1 X98.898 Y86.790 E192.01371
G1 X98.898 Y87.263 E192.04012
G1 X87.263 Y98.898 E192.95704
G1 X87.737 Y98.898 E192.98345
G1 X98.898 Y87.737 E193.86301
G1 X98.898 Y88.211 E193.88942
G1 X88.211 Y98.898 E194.73163
G1 X88.685 Y98.898 E194.75804
G1 X98.898 Y88.685 E195.56290
G1 X98.898 Y89.159 E195.58931
G1 X89.159 Y98.898 E196.35682
G1 X89.633 Y98.898 E196.38323
G1 X98.898 Y89.633 E197.11339
G1 X98.898 Y90.107 E197.13980
G1 X90.107 Y98.898 E197.83261
G1 X90.581 Y98.898 E197.85902
G1 X98.898 Y90.581 E198.51448
G1 X98.898 Y91.055 E198.54089
G1 X91.055 Y98.898 E199.15900
G1 X91.529 Y98.898 E199.18541
G1 X98.898 Y91.529 E199.76617
G1 X98.898 Y92.003 E199.79258
G1 X92.003 Y98.898 E200.33598
G1 X92.477 Y98.898 E200.36239
G1 X98.898 Y92.477 E200.86845
G1 X98.898 Y92.950 E200.89486
G1 X92.950 Y98.898 E201.36356
G1 X93.424 Y98.898 E201.38997
G1 X98.898 Y93.424 E201.82133
G1 X98.898 Y93.898 E201.84774
G1 X93.898 Y98.898 E202.24174
G1 X94.372 Y98.898 E202.26815
G1 X98.898 Y94.372 E202.62480
G1 X98.898 Y94.846 E202.65121
G1 X94.846 Y98.898 E202.97052
G1 X95.320 Y98.898 E202.99693
G1 X98.898 Y95.320 E203.27888
G1 X98.898 Y95.794 E203.30529
G1 X95.794 Y98.898 E203.54989
G1 X96.268 Y98.898 E203.57630
G1 X98.898 Y96.268 E203.78355
G1 X98.898 Y96.742 E203.80996
G1 X96.742 Y98.898 E203.97986
G1 X97.216 Y98.898 E204.00627
G1 X98.898 Y97.216 E204.13882
G1 X98.898 Y97.690 E204.16523
G1 X97.690 Y98.898 E204.26042
G1 X98.164 Y98.898 E204.28684
G1 X98.898 Y98.164 E204.34468
G1 X98.898 Y98.637 E204.37109
G1 X98.637 Y98.898 E204.39159


M106 S244.8




;CHANGE Z
